d2 $ jux ((|+| pan "0.25") . rev) $ sound "[coeur:5 [coeur:6 coeur:7]]"
|+| speed "0.5 0.75" 
|+| pan "1 0 1 0"

d3 $ slow 1 $ sound "[hh:5 sn:1]"
|+| speed "0.75" 
|+| gain "0.5"

d3 $ slow 1 $ sound "[hh:5]"
|+| speed "0.75" 
|+| gain "0.5"

hush
